assets/src/images/icons/ic_brain_home.svg

<svg width="34" height="58" viewBox="0 0 34 58" fill="none" xmlns="http://www.w3.org/2000/svg">
<path d="M5.16341 0H28.7347C31.2342 0 33.2677 2.03348 33.2677 4.53295V49.8624C33.2677 52.3619 31.2342 54.3954 28.7347 54.3954H5.16341C2.66394 54.3954 0.630463 52.3619 0.630463 49.8624V4.53295C0.630463 2.03348 2.66394 0 5.16341 0ZM2.44364 49.8624C2.44364 51.3619 3.66391 52.5822 5.16341 52.5822H28.7347C30.2342 52.5822 31.4545 51.3619 31.4545 49.8624V4.53295C31.4545 3.03345 30.2342 1.81318 28.7347 1.81318H5.16341C3.66391 1.81318 2.44364 3.03345 2.44364 4.53295V49.8624Z" fill="#0090A1"/>
<path d="M1.53705 48.954C2.0384 48.954 2.44364 49.3593 2.44364 49.8606V53.468C2.44364 54.9675 3.66391 56.1877 5.16341 56.1877H28.7347C30.2342 56.1877 31.4545 54.9675 31.4545 53.468V49.8606C31.4545 49.3593 31.8598 48.954 32.3611 48.954C32.8625 48.954 33.2677 49.3593 33.2677 49.8606V53.467C33.2677 55.9665 31.2342 58 28.7347 58H5.16341C2.66394 58 0.630463 55.9665 0.630463 53.468V49.8606C0.630463 49.3593 1.03571 48.954 1.53705 48.954Z" fill="#0090A1"/>
<path d="M1.53705 45.3077H32.3611C32.8625 45.3077 33.2677 45.713 33.2677 46.2143C33.2677 46.7157 32.8625 47.1209 32.3611 47.1209H1.53705C1.03571 47.1209 0.630463 46.7157 0.630463 46.2143C0.630463 45.713 1.03571 45.3077 1.53705 45.3077Z" fill="#0090A1"/>
<path d="M16.9654 47.1209C18.4649 47.1209 19.6852 48.3412 19.6852 49.8407C19.6852 51.3402 18.4649 52.5605 16.9654 52.5605C15.465 52.5605 14.2456 51.3402 14.2456 49.8407C14.2456 48.3412 15.4659 47.1209 16.9654 47.1209ZM16.9654 50.7473C17.4658 50.7473 17.872 50.3411 17.872 49.8407C17.872 49.3402 17.4658 48.9341 16.9654 48.9341C16.465 48.9341 16.0588 49.3402 16.0588 49.8407C16.0588 50.3411 16.465 50.7473 16.9654 50.7473Z" fill="#0090A1"/>
<path d="M16.1839 9.47478C16.4522 9.05322 17.0116 8.92901 17.4359 9.19646L27.4083 15.5426C27.8308 15.8118 27.9559 16.3721 27.6867 16.7946C27.5135 17.0657 27.2207 17.2143 26.9206 17.2143C26.7538 17.2143 26.5861 17.1681 26.4347 17.0729L16.4622 10.7268C16.0397 10.4575 15.9146 9.89725 16.1839 9.47478Z" fill="#0090A1"/>
<path d="M6.48977 15.5426L16.4623 9.19644C16.8856 8.92991 17.445 9.05411 17.7143 9.47477C17.9835 9.89724 17.8584 10.4575 17.4359 10.7268L7.46345 17.0729C7.31205 17.1681 7.14433 17.2143 6.97751 17.2143C6.67834 17.2143 6.3846 17.0656 6.21144 16.7946C5.94219 16.3721 6.0673 15.8118 6.48977 15.5426Z" fill="#0090A1"/>
<path d="M16.1839 13.1012C16.4522 12.6796 17.0116 12.5545 17.4359 12.8228L27.4083 19.169C27.8308 19.4382 27.9559 19.9985 27.6867 20.421C27.5135 20.692 27.2207 20.8407 26.9206 20.8407C26.7538 20.8407 26.5861 20.7945 26.4347 20.6993L16.4622 14.3532C16.0397 14.0839 15.9146 13.5236 16.1839 13.1012Z" fill="#0090A1"/>
<path d="M6.48977 19.1689L16.4623 12.8228C16.8856 12.5563 17.445 12.6805 17.7143 13.1011C17.9835 13.5236 17.8584 14.0839 17.4359 14.3531L7.46345 20.6992C7.31205 20.7944 7.14433 20.8407 6.97751 20.8407C6.67834 20.8407 6.3846 20.692 6.21144 20.4209C5.94219 19.9984 6.0673 19.4382 6.48977 19.1689Z" fill="#0090A1"/>
<path d="M26.9216 15.4011C27.4229 15.4011 27.8282 15.8064 27.8282 16.3077V19.9341C27.8282 20.4354 27.4229 20.8407 26.9216 20.8407C26.4203 20.8407 26.015 20.4354 26.015 19.9341V16.3077C26.015 15.8064 26.4203 15.4011 26.9216 15.4011Z" fill="#0090A1"/>
<path d="M6.97659 15.4011C7.47793 15.4011 7.88318 15.8064 7.88318 16.3077V19.9341C7.88318 20.4354 7.47793 20.8407 6.97659 20.8407C6.47524 20.8407 6.07 20.4354 6.07 19.9341V16.3077C6.07 15.8064 6.47524 15.4011 6.97659 15.4011Z" fill="#0090A1"/>
<path d="M25.1084 17.8743C25.6097 17.8743 26.015 18.2796 26.015 18.7809V29.9066C26.015 30.4079 25.6097 30.8132 25.1084 30.8132C24.607 30.8132 24.2018 30.4079 24.2018 29.9066V18.7809C24.2018 18.2796 24.607 17.8743 25.1084 17.8743Z" fill="#0090A1"/>
<path d="M6.06999 29H27.8282C28.3295 29 28.7347 29.4052 28.7347 29.9066C28.7347 30.4079 28.3295 30.8132 27.8282 30.8132H6.06999C5.56865 30.8132 5.1634 30.4079 5.1634 29.9066C5.1634 29.4052 5.56865 29 6.06999 29Z" fill="#0090A1"/>
<path d="M8.78976 17.8743C9.2911 17.8743 9.69635 18.2796 9.69635 18.7809V29.9066C9.69635 30.4079 9.2911 30.8132 8.78976 30.8132C8.28842 30.8132 7.88317 30.4079 7.88317 29.9066V18.7809C7.88317 18.2796 8.28842 17.8743 8.78976 17.8743Z" fill="#0090A1"/>
<path d="M15.1359 21.7473H18.7622C19.2636 21.7473 19.6688 22.1525 19.6688 22.6538V29.9066C19.6688 30.4079 19.2636 30.8132 18.7622 30.8132H15.1359C14.6345 30.8132 14.2293 30.4079 14.2293 29.9066V22.6538C14.2293 22.1525 14.6345 21.7473 15.1359 21.7473ZM16.0425 29H17.8556V23.5604H16.0425V29Z" fill="#0090A1"/>
<path d="M17.8557 33.533H27.8282C28.3295 33.533 28.7347 33.9382 28.7347 34.4395C28.7347 34.9409 28.3295 35.3461 27.8282 35.3461H17.8557C17.3543 35.3461 16.9491 34.9409 16.9491 34.4395C16.9491 33.9382 17.3543 33.533 17.8557 33.533Z" fill="#0090A1"/>
<path d="M22.3886 36.2527H27.8282C28.3295 36.2527 28.7347 36.658 28.7347 37.1593C28.7347 37.6607 28.3295 38.0659 27.8282 38.0659H22.3886C21.8873 38.0659 21.482 37.6607 21.482 37.1593C21.482 36.658 21.8873 36.2527 22.3886 36.2527Z" fill="#0090A1"/>
<path d="M6.07 33.533H13.3227C13.8241 33.533 14.2293 33.9382 14.2293 34.4395V37.1593C14.2293 37.6607 13.8241 38.0659 13.3227 38.0659H6.07C5.56866 38.0659 5.16341 37.6607 5.16341 37.1593V34.4395C5.16341 33.9382 5.56866 33.533 6.07 33.533ZM6.97659 36.2527H12.4161V35.3461H6.97659V36.2527Z" fill="#0090A1"/>
</svg>

<svg width="34" height="58" viewBox="0 0 34 58" fill="none" xmlns="http://www.w3.org/2000/svg"><path d="M5.163 0h23.572c2.5 0 4.533 2.033 4.533 4.533v45.33a4.538 4.538 0 01-4.533 4.532H5.163A4.538 4.538 0 01.63 49.862V4.532A4.539 4.539 0 015.163 0zm-2.72 49.862c0 1.5 1.22 2.72 2.72 2.72h23.572c1.5 0 2.72-1.22 2.72-2.72V4.532a2.723 2.723 0 00-2.72-2.719H5.163c-1.5 0-2.72 1.22-2.72 2.72v45.33z" fill="#0090A1"/><path d="M1.537 48.954c.501 0 .907.405.907.907v3.607c0 1.5 1.22 2.72 2.72 2.72h23.57c1.5 0 2.72-1.22 2.72-2.72v-3.607a.906.906 0 111.814 0v3.606c0 2.5-2.034 4.533-4.533 4.533H5.163A4.538 4.538 0 01.63 53.468v-3.607c0-.502.406-.907.907-.907zm0-3.646h30.824a.906.906 0 110 1.813H1.537a.906.906 0 110-1.813z" fill="#0090A1"/><path d="M16.965 47.12c1.5 0 2.72 1.221 2.72 2.72 0 1.5-1.22 2.72-2.72 2.72-1.5 0-2.72-1.22-2.72-2.72 0-1.499 1.22-2.72 2.72-2.72zm0 3.627a.907.907 0 100-1.814.907.907 0 000 1.814zm-.781-41.272a.909.909 0 011.252-.279l9.972 6.347a.907.907 0 11-.973 1.53l-9.973-6.346a.907.907 0 01-.278-1.252z" fill="#0090A1"/><path d="M6.49 15.543l9.972-6.347a.907.907 0 11.974 1.53l-9.973 6.347a.91.91 0 01-1.252-.278.907.907 0 01.279-1.252zm9.694-2.442a.908.908 0 011.252-.278l9.972 6.346a.907.907 0 11-.973 1.53l-9.973-6.346a.907.907 0 01-.278-1.252z" fill="#0090A1"/><path d="M6.49 19.169l9.972-6.346a.907.907 0 11.974 1.53L7.463 20.7a.91.91 0 01-1.252-.278.907.907 0 01.279-1.252zm20.432-3.768c.5 0 .906.405.906.907v3.626a.906.906 0 11-1.813 0v-3.626c0-.502.405-.907.907-.907z" fill="#0090A1"/><path d="M6.977 15.401c.5 0 .906.405.906.907v3.626a.906.906 0 11-1.813 0v-3.626c0-.502.405-.907.907-.907zm18.131 2.473c.502 0 .907.406.907.907v11.126a.906.906 0 11-1.813 0V18.78c0-.501.405-.907.906-.907z" fill="#0090A1"/><path d="M6.07 29h21.758a.906.906 0 110 1.813H6.07a.906.906 0 110-1.813z" fill="#0090A1"/><path d="M8.79 17.874c.501 0 .906.406.906.907v11.126a.906.906 0 11-1.813 0V18.78c0-.501.405-.907.907-.907zm6.346 3.873h3.626c.502 0 .907.405.907.907v7.253a.906.906 0 01-.907.906h-3.626a.906.906 0 01-.907-.906v-7.253c0-.502.405-.907.907-.907zM16.043 29h1.813v-5.44h-1.814V29zm1.813 4.533h9.972a.906.906 0 110 1.813h-9.972a.906.906 0 110-1.813zm4.533 2.72h5.44a.906.906 0 110 1.813h-5.44a.906.906 0 110-1.813zM6.07 33.533h7.253c.501 0 .906.405.906.907v2.72a.906.906 0 01-.906.906H6.07a.906.906 0 01-.907-.907v-2.72c0-.5.406-.906.907-.906zm.907 2.72h5.44v-.907h-5.44v.907z" fill="#0090A1"/></svg>
